static/img/jackal-icon.svg

<svg width="50" height="50" viewBox="0 0 50 50" fill="none" xmlns="http://www.w3.org/2000/svg">
<g clip-path="url(#clip0_925_2240)">
<path d="M7.86784 43.2067C17.9232 52.6686 33.745 52.1874 43.2068 42.1321C52.6687 32.0767 52.1876 16.2549 42.1322 6.79308C32.0769 -2.66877 16.2551 -2.18764 6.79322 7.8677C-2.66862 17.923 -2.1875 33.7449 7.86784 43.2067Z" fill="url(#paint0_linear_925_2240)"/>
<path fill-rule="evenodd" clip-rule="evenodd" d="M11.1985 7.40747C11.1985 7.40747 19.3138 12.1196 21.9628 17.4846C22.9256 17.2201 23.9375 17.076 24.9693 17.076C26.0204 17.076 27.0508 17.2255 28.0298 17.4996C30.6711 12.1284 38.8015 7.40747 38.8015 7.40747C39.089 10.4693 38.8203 17.8186 35.6121 23.966C35.4265 23.6475 35.2475 23.3499 35.0687 23.0646C36.1354 20.8609 36.4467 19.4404 36.4727 16.7308C35.8577 19.1903 35.4986 20.5748 34.3738 22.0207C33.682 21.0448 32.8777 20.0918 31.6348 18.7512L31.6359 18.7158C32.0491 16.2084 32.6831 14.6985 34.0062 11.9556C31.4198 14.9886 30.1844 17.4495 30.2214 19.6425L30.2003 19.622C30.2169 20.8644 30.6411 22.0206 31.4593 23.1458L31.6152 21.9664L32.321 22.3979C32.2334 22.1318 32.1455 21.9102 32.0631 21.7018C31.9741 21.4765 31.8911 21.2669 31.821 21.0336C31.8302 21.0413 31.8395 21.049 31.8488 21.0567C31.8464 21.049 31.8441 21.0413 31.8417 21.0336C32.8559 21.8759 33.7679 22.8382 35.3002 24.543L35.2799 24.579L35.26 24.5596C35.3331 24.9551 35.3711 25.3571 35.3711 25.7637C35.3711 26.4193 35.2721 27.2407 35.0868 28.1674C35.3774 28.3357 35.6639 28.5661 35.8501 28.928C35.4573 28.9346 35.1863 28.9673 34.8867 29.0707C34.8761 29.1145 34.8654 29.1586 34.8545 29.2029C35.9183 30.2302 36.4008 30.9589 37.0949 32.3224C36.0032 31.4143 35.3129 30.8527 34.534 30.3881C34.4989 30.508 34.4629 30.6287 34.4258 30.7501C35.0242 31.8082 35.1399 32.5882 34.866 33.9334C34.3515 33.4881 33.9812 33.1753 33.6522 33.0015C33.4105 33.6351 33.147 34.2727 32.8638 34.9031C32.6736 35.0868 32.521 35.2863 32.3701 35.4832C31.9663 36.011 31.5748 36.5224 30.5101 36.6733C30.5674 38.1313 30.245 38.7702 29.9022 39.4496C29.7303 39.7901 29.5534 40.1407 29.4165 40.6097C29.1465 40.9252 28.8708 41.2189 28.5903 41.4873C26.8552 42.3557 26.7649 42.3128 25.1445 41.5446L24.9418 41.4485C23.125 42.3079 22.9942 42.3538 21.4534 41.5863C21.0851 41.2438 20.7249 40.8571 20.3748 40.4346C20.2472 40.0508 20.0936 39.7463 19.9438 39.4496C19.6009 38.7702 19.2786 38.1313 19.3358 36.6733C18.2711 36.5224 17.8797 36.011 17.4757 35.4832C17.3746 35.3511 17.2727 35.2181 17.1592 35.0893C16.8475 34.4062 16.5586 33.7137 16.2956 33.0255C15.9642 33.1984 15.5919 33.5127 15.0726 33.9622C14.7979 32.6127 14.9152 31.832 15.5186 30.7686C15.4821 30.6493 15.4465 30.5306 15.4119 30.4125C14.6301 30.878 13.9388 31.4401 12.8438 32.3513C13.5391 30.9853 14.0221 30.2563 15.09 29.2261C15.0797 29.1846 15.0696 29.1434 15.0596 29.1022C14.7571 28.9966 14.4847 28.9635 14.0885 28.9567C14.2759 28.5928 14.5647 28.3617 14.8571 28.1933C14.6684 27.2558 14.5676 26.4253 14.5676 25.7637C14.5676 25.3601 14.6051 24.9608 14.6771 24.5681C16.2231 22.8476 17.1391 21.8801 18.1581 21.0336C18.088 21.2669 18.005 21.4765 17.9159 21.7017C17.8335 21.9101 17.7458 22.1318 17.658 22.3979L18.3639 21.9664L18.5199 23.1458C20.7786 20.039 20.036 16.6962 15.9938 11.9556C17.3167 14.6985 17.9508 16.2085 18.3639 18.7158L18.3652 18.7512C17.1223 20.0918 16.3179 21.0448 15.6261 22.0207C14.5014 20.5748 14.1423 19.1903 13.5272 16.7308C13.5533 19.4404 13.8646 20.8609 14.9314 23.0646C14.7525 23.3497 14.5737 23.6474 14.388 23.9659C11.1798 17.8185 10.9109 10.4693 11.1985 7.40747ZM22.1163 30.3087L21.195 28.5827L18.6094 28.1224C18.7222 29.9499 19.9468 30.6538 22.1163 30.3087ZM29.1004 28.5827L28.1791 30.3087C30.3486 30.6538 31.5731 29.9499 31.6859 28.1224L29.1004 28.5827ZM23.3144 37.5784C22.9125 37.8538 22.6644 38.2317 22.6644 38.6488C22.6644 39.4908 23.6757 40.1733 24.9231 40.1733C26.1705 40.1733 27.1818 39.4908 27.1818 38.6488C27.1818 38.21 26.9072 37.8145 26.4677 37.5364C26.0224 37.7102 25.4536 37.8145 24.834 37.8145C24.2661 37.8145 23.741 37.7269 23.3144 37.5784Z" fill="white"/>
</g>
<defs>
<linearGradient id="paint0_linear_925_2240" x1="6.79322" y1="7.8677" x2="43.2068" y2="42.1321" gradientUnits="userSpaceOnUse">
<stop stop-color="#032963"/>
<stop offset="0.604502" stop-color="#040D21"/>
</linearGradient>
<clipPath id="clip0_925_2240">
<rect width="50" height="50" fill="white"/>
</clipPath>
</defs>
</svg>

<svg xmlns="http://www.w3.org/2000/svg" width="50" height="50" fill="none"><g clip-path="url(#a)"><path fill="url(#b)" d="M7.868 43.207c10.055 9.462 25.877 8.98 35.339-1.075s8.98-25.877-1.075-35.339-25.877-8.98-35.339 1.075-8.98 25.877 1.075 35.339"/><path fill="#fff" fill-rule="evenodd" d="M11.199 7.407s8.115 4.713 10.764 10.078a11.4 11.4 0 0 1 3.006-.409c1.051 0 2.082.15 3.06.424 2.642-5.372 10.772-10.093 10.772-10.093.288 3.062.02 10.412-3.189 16.559a33 33 0 0 0-.543-.901c1.066-2.204 1.378-3.625 1.404-6.334-.615 2.46-.974 3.844-2.1 5.29-.691-.976-1.495-1.93-2.738-3.27v-.035c.414-2.508 1.048-4.018 2.371-6.76-2.586 3.033-3.822 5.494-3.785 7.686l-.02-.02c.016 1.242.44 2.399 1.258 3.524l.156-1.18.706.432a12 12 0 0 0-.258-.696c-.089-.226-.172-.435-.242-.668l.028.023-.007-.023c1.014.842 1.926 1.804 3.458 3.509l-.02.036-.02-.02q.11.594.111 1.205c0 .655-.099 1.477-.284 2.403.29.169.577.4.763.761-.393.007-.664.04-.963.143l-.032.132c1.063 1.027 1.546 1.756 2.24 3.12-1.092-.909-1.782-1.47-2.561-1.935l-.108.362c.598 1.058.714 1.838.44 3.183-.514-.445-.885-.758-1.214-.931a36 36 0 0 1-.788 1.901c-.19.184-.343.383-.494.58-.404.528-.795 1.04-1.86 1.19.057 1.458-.265 2.097-.608 2.777-.172.34-.349.69-.486 1.16q-.405.474-.826.877c-1.735.869-1.825.826-3.445.058l-.203-.096c-1.817.859-1.948.905-3.489.137a12 12 0 0 1-1.078-1.151 7 7 0 0 0-.431-.985c-.343-.68-.665-1.319-.608-2.777-1.065-.15-1.456-.662-1.86-1.19a7 7 0 0 0-.317-.394 36 36 0 0 1-.863-2.063c-.332.172-.704.487-1.223.936-.275-1.35-.158-2.13.446-3.193l-.107-.356c-.782.465-1.473 1.027-2.568 1.938.695-1.366 1.178-2.095 2.246-3.125l-.03-.124c-.303-.105-.575-.139-.972-.145.188-.364.477-.595.77-.764-.19-.937-.29-1.768-.29-2.43q0-.605.11-1.195c1.545-1.72 2.461-2.688 3.48-3.534-.07.233-.153.443-.242.668-.082.208-.17.43-.258.696l.706-.432.156 1.18c2.259-3.107 1.516-6.45-2.526-11.19 1.323 2.742 1.957 4.253 2.37 6.76l.001.035c-1.243 1.34-2.047 2.294-2.739 3.27-1.125-1.446-1.484-2.83-2.099-5.29.026 2.71.338 4.13 1.404 6.334a32 32 0 0 0-.543.9c-3.208-6.146-3.477-13.496-3.19-16.558M22.115 30.31l-.921-1.726-2.586-.46c.113 1.827 1.338 2.53 3.507 2.186m6.984-1.726-.92 1.726c2.169.345 3.393-.36 3.506-2.187zm-5.786 8.995c-.401.276-.65.654-.65 1.07 0 .843 1.012 1.525 2.26 1.525s2.258-.682 2.258-1.524c0-.439-.275-.834-.714-1.113-.446.174-1.014.279-1.634.279a4.7 4.7 0 0 1-1.52-.237" clip-rule="evenodd"/></g><defs><linearGradient id="b" x1="6.793" x2="43.207" y1="7.868" y2="42.132" gradientUnits="userSpaceOnUse"><stop stop-color="#032963"/><stop offset=".605" stop-color="#040D21"/></linearGradient><clipPath id="a"><path fill="#fff" d="M0 0h50v50H0z"/></clipPath></defs></svg>
